icons/filled/layout-sidebar-right-expand.svg

<svg xmlns="http://www.w3.org/2000/svg" width="24" height="24" viewBox="0 0 24 24" fill="currentColor"><path d="M18 3a3 3 0 0 1 2.995 2.824l.005 .176v12a3 3 0 0 1 -2.824 2.995l-.176 .005h-12a3 3 0 0 1 -2.995 -2.824l-.005 -.176v-12a3 3 0 0 1 2.824 -2.995l.176 -.005h12zm-3 2h-9a1 1 0 0 0 -.993 .883l-.007 .117v12a1 1 0 0 0 .883 .993l.117 .007h9v-14zm-3.293 4.293a1 1 0 0 1 .083 1.32l-.083 .094l-1.292 1.293l1.292 1.293a1 1 0 0 1 .083 1.32l-.083 .094a1 1 0 0 1 -1.32 .083l-.094 -.083l-2 -2a1 1 0 0 1 -.083 -1.32l.083 -.094l2 -2a1 1 0 0 1 1.414 0z"/></svg>

<svg xmlns="http://www.w3.org/2000/svg" width="24" height="24" fill="currentColor"><path d="M18 3a3 3 0 0 1 2.995 2.824L21 6v12a3 3 0 0 1-2.824 2.995L18 21H6a3 3 0 0 1-2.995-2.824L3 18V6a3 3 0 0 1 2.824-2.995L6 3zm-3 2H6a1 1 0 0 0-.993.883L5 6v12a1 1 0 0 0 .883.993L6 19h9zm-3.293 4.293a1 1 0 0 1 .083 1.32l-.083.094L10.415 12l1.292 1.293a1 1 0 0 1 .083 1.32l-.083.094a1 1 0 0 1-1.32.083l-.094-.083-2-2a1 1 0 0 1-.083-1.32l.083-.094 2-2a1 1 0 0 1 1.414 0"/></svg>
